X:1
T:He Brought Me Out
T:He Brought Me Out
T:Henry Lake Gilmour
T:Henry Jeffreys Zelley, 1898
T:Public Domain Courtesy of the Cyber Hymnal™
T:Public Domain Courtesy of the Cyber Hymnal™
C:Henry Lake Gilmour
Z:Public Domain
Z:Courtesy of the Cyber Hymnal™
%%score ( 1 2 ) ( 3 4 )
L:1/8
Q:1/4=105
M:4/4
K:Db
V:1 treble 
V:2 treble 
V:3 bass 
V:4 bass 
V:1
 D2 | [DF]2 [DF][DF] [DF]2 [CE]D | [CA]2 [CA][CA] [DA]3 [DA] | [DB]2 [DB][DB] [DA]2 [CG][DF] | %4
w: 1.~My|heart was dis- tressed ’neath Je-|ho- vah’s dread frown, And|low in the pit where my|
w: 2.~He|placed me up- on the strong|Rock by His side, My|steps were es- tab- lished and|
w: 3.~He|gave me a song, ’twas a|new song of praise; By|day and by night its sweet|
w: 4.~I’ll|sing of His won- der- ful|mer- cy to me, I’ll|praise Him till all men His|
 [EA]2 [CG][DF] [CE]3 D | [DF]2 [DF][DF] [DF]2 [CE]D | [DG]2 [DB][DB] [Dd]3 [DB] | %7
w: sins dragged me down; I|cried to the Lord from the|deep mi- ry clay, Who|
w: here I’ll a- bide; No|dan- ger of fall- ing while|here I re- main, But|
w: notes I will raise; My|heart’s o- ver- flow- ing, I’m|hap- py and free. I’ll|
w: good- ness shall see; I’ll|sing of sal- va- tion at|home and a- broad, Till|
 [DA]2 [GA][GA] [FA][DF]D[DE] | [DF]2 [CE]2 D4 ||"^Refrain" [Fd]2 [Fd][Fd] [Fd]2 [Gc][GB] | %10
w: ten- der- ly brought me out to|gold- en day.||
w: stand by His grace un- til the|crown I gain.|He brought me out of the|
w: praise my Re- deem- er, Who has|res- cued me.||
w: ma- ny shall hear the truth and|trust in God.||
 [FA]2 [DF]2 [FA]4 | [Fd]2 [Fd][Fd] [Fd]2 [Fc][FB] | [Ec]2 [DB]2 (A2 G2) | %13
w: |||
w: mi- ry clay,|He set my feet on the|Rock to stay; *|
w: |||
w: |||
 [DF]2 [DF][DF] [DF]2 [CE]D | [DG]2 [DB]2 !fermata![Dd]3 [DB] | [DA]2 [GA]2 [FA]2 [DF]D | %16
w: |||
w: He puts a song in my|soul to- day, A|song of praise, hal- le-|
w: |||
w: |||
 [CEe]4 !fermata!D2 |] %17
w: |
w: lu- jah!|
w: |
w: |
V:2
 D2 | x7 D | x8 | x8 | x7 D | x7 D | x8 | x6 D x | x4 D4 || x8 | x8 | x8 | x4 C4 | x7 D | x8 | %15
 x7 D | x4 D2 |] %17
V:3
 [D,F,]2 | [D,A,]2 [D,A,][D,A,] [D,A,]2 [G,A,][F,A,] | [E,G,]2 [A,,E,][A,,G,] [D,F,]3 [F,A,] | %3
 G,2 G,G, [F,A,]2 [E,A,][D,A,] | [C,A,]2 [E,A,][D,A,] [A,,A,]3 [D,F,] | %5
 [D,A,]2 [D,A,][D,A,] [D,A,]2 [E,A,][F,A,] | [G,B,]2 G,G, [G,B,]3 G, | %7
 [F,A,]2 [E,C][E,C] [D,D][D,A,][B,,=G,][B,,G,] | [A,,A,]2 [A,,G,]2 [D,F,]4 || %9
 [D,A,]2 [D,A,][D,A,] [D,A,]2 [D,B,][D,C] | [D,D]2 [D,A,]2 [D,A,]4 | %11
 [B,,B,]2 [B,,B,][B,,B,] [B,,B,]2 [C,=A,][D,B,] | [E,A,]2 [E,=G,]2 [A,,A,]4 | %13
 [D,A,]2 [D,A,][D,A,] [D,A,]2 [E,A,][F,A,] | [G,B,]2 G,2 !fermata![G,B,]3 G, | %15
 [F,A,]2 [E,C]2 [D,D]2 [D,A,][D,F,] | (A,2 G,2) !fermata![D,F,]2 |] %17
V:4
 x2 | x8 | x8 | G,2 G,G, x4 | x8 | x8 | x2 G,G, x2 G, x | x8 | x8 || x8 | x8 | x8 | x8 | x8 | %14
 x2 G,2 x G, x2 | x8 | A,,4 x2 |] %17

